src/images/vp-icons/icon-1.svg

<svg width="84" height="84" viewBox="0 0 84 84" fill="none" xmlns="http://www.w3.org/2000/svg">
<path d="M74.3352 66.1034C75.5975 64.983 76.4032 63.3921 76.4032 61.6133V59.1617C76.4032 55.7825 73.545 53.0328 70.0323 53.0328C66.9563 53.0328 64.3824 55.1426 63.7894 57.9359H59.6041C59.0766 56.5127 57.6748 55.4844 56.0161 55.4844C54.3568 55.4844 52.9551 56.5127 52.4275 57.9359H48.2422C47.7339 55.5383 45.766 53.6457 43.2742 53.1567V50.4071C45.4667 49.8594 47.0968 47.9567 47.0968 45.6781H48.371C49.0753 45.6781 49.6452 45.1305 49.6452 44.4524V40.775H52.1935V38.3235H49.6452V38.3103C49.6452 35.9653 50.8005 33.6603 52.8151 31.9911C56.4684 28.9595 58.5645 24.5663 58.5645 19.9367C58.5645 15.5585 56.7559 11.4766 53.4727 8.44266C50.1914 5.40873 45.8543 3.82503 41.3169 4.01537C32.7161 4.34874 25.5916 11.3611 25.438 19.6465C25.3496 24.3359 27.4053 28.8027 31.0773 31.9019C33.0981 33.6053 34.2727 35.9359 34.3418 38.3235H31.8065V40.775H34.3548V44.4524C34.3548 45.1305 34.9241 45.6781 35.629 45.6781H36.9032C36.9032 47.9567 38.5327 49.8594 40.7258 50.4071V53.1567C38.2334 53.6457 36.2661 55.5383 35.7572 57.9359H31.5719C31.0443 56.5127 29.6426 55.4844 27.9839 55.4844C26.3246 55.4844 24.9228 56.5127 24.3952 57.9359H20.2099C19.617 55.1426 17.0443 53.0328 13.9677 53.0328C10.4544 53.0328 7.59677 55.7825 7.59677 59.1617V61.6133C7.59677 63.3921 8.40186 64.983 9.66423 66.1034C5.46835 67.7446 2.5 71.7038 2.5 76.3227V78.7742C2.5 79.4523 3.06928 80 3.77419 80H24.1613C24.8656 80 25.4355 79.4523 25.4355 78.7742V76.3227C25.4355 71.7038 22.4665 67.7446 18.2706 66.1034C19.533 64.983 20.3387 63.3921 20.3387 61.6133V60.3875H24.3952C24.9228 61.8108 26.3246 62.8391 27.9839 62.8391C29.6426 62.8391 31.0443 61.8108 31.5719 60.3875H35.629V61.6133C35.629 63.3921 36.4341 64.983 37.6965 66.1034C33.5006 67.7446 30.5323 71.7038 30.5323 76.3227V78.7742C30.5323 79.4523 31.1015 80 31.8065 80H52.1935C52.8978 80 53.4677 79.4523 53.4677 78.7742V76.3227C53.4677 71.7038 50.4988 67.7446 46.3029 66.1034C47.5653 64.983 48.371 63.3921 48.371 61.6133V60.3875H52.4275C52.9551 61.8108 54.3568 62.8391 56.0161 62.8391C57.6748 62.8391 59.0766 61.8108 59.6041 60.3875H63.6613V61.6133C63.6613 63.3921 64.4664 64.983 65.7287 66.1034C61.5329 67.7446 58.5645 71.7038 58.5645 76.3227V78.7742C58.5645 79.4523 59.1338 80 59.8387 80H80.2258C80.9301 80 81.5 79.4523 81.5 78.7742V76.3227C81.5 71.7038 78.531 67.7446 74.3352 66.1034ZM22.8871 76.3227V77.5484H20.3387V75.0969H17.7903V77.5484H10.1452V75.0969H7.59677V77.5484H5.04839V76.3227C5.04839 71.5925 9.05015 67.7422 13.9677 67.7422C18.8847 67.7422 22.8871 71.5925 22.8871 76.3227ZM10.1452 61.6133V59.1617C10.1452 57.1345 11.8598 55.4844 13.9677 55.4844C16.075 55.4844 17.7903 57.1345 17.7903 59.1617V61.6133C17.7903 63.6405 16.075 65.2906 13.9677 65.2906C11.8598 65.2906 10.1452 63.6405 10.1452 61.6133ZM27.9839 60.3875C27.2802 60.3875 26.7097 59.8387 26.7097 59.1617C26.7097 58.4854 27.2802 57.9359 27.9839 57.9359C28.6869 57.9359 29.2581 58.4854 29.2581 59.1617C29.2581 59.8387 28.6869 60.3875 27.9839 60.3875ZM32.7565 30.0578C29.65 27.4363 27.9111 23.6572 27.9864 19.689C28.1176 12.679 34.1433 6.74644 41.4189 6.46393C45.3062 6.32807 48.9315 7.64602 51.7064 10.2113C54.4856 12.7772 56.0161 16.2325 56.0161 19.9367C56.0161 23.8529 54.2423 27.5697 51.1508 30.1326C48.5744 32.2706 47.0968 35.2506 47.0968 38.3103V38.3235H36.8902C36.8211 35.2309 35.3304 32.2275 32.7565 30.0578ZM47.0968 40.775V43.2266H36.9032V40.775H47.0968ZM39.4516 45.6781H44.5484C44.5484 47.0302 43.4048 48.1297 42 48.1297C40.5945 48.1297 39.4516 47.0302 39.4516 45.6781ZM50.9193 76.3227V77.5484H48.371V75.0969H45.8226V77.5484H38.1774V75.0969H35.629V77.5484H33.0806V76.3227C33.0806 71.5925 37.0824 67.7422 42 67.7422C46.917 67.7422 50.9193 71.5925 50.9193 76.3227ZM38.1774 61.6133V59.1617C38.1774 57.1345 39.8921 55.4844 42 55.4844C44.1073 55.4844 45.8226 57.1345 45.8226 59.1617V61.6133C45.8226 63.6405 44.1073 65.2906 42 65.2906C39.8921 65.2906 38.1774 63.6405 38.1774 61.6133ZM56.0161 60.3875C55.3125 60.3875 54.7419 59.8387 54.7419 59.1617C54.7419 58.4854 55.3125 57.9359 56.0161 57.9359C56.7192 57.9359 57.2903 58.4854 57.2903 59.1617C57.2903 59.8387 56.7192 60.3875 56.0161 60.3875ZM66.2097 61.6133V59.1617C66.2097 57.1345 67.9244 55.4844 70.0323 55.4844C72.1395 55.4844 73.8548 57.1345 73.8548 59.1617V61.6133C73.8548 63.6405 72.1395 65.2906 70.0323 65.2906C67.9244 65.2906 66.2097 63.6405 66.2097 61.6133ZM78.9516 77.5484H76.4032V75.0969H73.8548V77.5484H66.2097V75.0969H63.6613V77.5484H61.1129V76.3227C61.1129 71.5925 65.1147 67.7422 70.0323 67.7422C74.9492 67.7422 78.9516 71.5925 78.9516 76.3227V77.5484Z" fill="url(#paint0_linear)"/>
<path d="M39.4516 33.4203H44.5485V35.8719H39.4516V33.4203Z" fill="url(#paint1_linear)"/>
<defs>
<linearGradient id="paint0_linear" x1="65.4367" y1="31.8499" x2="14.0867" y2="31.8499" gradientUnits="userSpaceOnUse">
<stop stop-color="#0DA6F2"/>
<stop offset="1" stop-color="#F2390B"/>
</linearGradient>
<linearGradient id="paint1_linear" x1="65.4367" y1="31.8499" x2="14.0867" y2="31.8499" gradientUnits="userSpaceOnUse">
<stop stop-color="#0DA6F2"/>
<stop offset="1" stop-color="#F2390B"/>
</linearGradient>
</defs>
</svg>

<svg xmlns="http://www.w3.org/2000/svg" fill="none" viewBox="0 0 84 84">
  <defs/>
  <path fill="url(#paint0_linear)" d="M74.3 66.1a6 6 0 002.1-4.5v-2.4c0-3.4-2.9-6.2-6.4-6.2-3 0-5.6 2.1-6.2 5h-4.2c-.5-1.5-2-2.5-3.6-2.5s-3 1-3.6 2.4h-4.2a6.3 6.3 0 00-5-4.7v-2.8a5 5 0 003.9-4.7h1.3c.7 0 1.2-.6 1.2-1.2v-3.7h2.6v-2.5h-2.6c0-2.3 1.2-4.6 3.2-6.3a15.5 15.5 0 00.7-23.5 16.8 16.8 0 00-28 11.1c-.2 4.7 2 9.2 5.6 12.3 2 1.7 3.2 4 3.2 6.4h-2.5v2.5h2.6v3.7c0 .6.5 1.2 1.2 1.2H37a5 5 0 003.8 4.7v2.8a6.3 6.3 0 00-5 4.7h-4.1c-.6-1.4-2-2.4-3.6-2.4-1.7 0-3 1-3.6 2.4h-4.2A6.3 6.3 0 0014 53a6.3 6.3 0 00-6.4 6.2v2.4a6 6 0 002 4.5 11 11 0 00-7.1 10.2v2.5c0 .7.6 1.2 1.3 1.2h20.4c.7 0 1.2-.5 1.2-1.2v-2.5c0-4.6-3-8.6-7.1-10.2a6 6 0 002-4.5v-1.2h4.1c.5 1.4 2 2.4 3.6 2.4s3-1 3.6-2.4h4v1.2a6 6 0 002.1 4.5 11 11 0 00-7.2 10.2v2.5c0 .7.6 1.2 1.3 1.2h20.4c.7 0 1.3-.5 1.3-1.2v-2.5c0-4.6-3-8.6-7.2-10.2a6 6 0 002-4.5v-1.2h4.1c.6 1.4 2 2.4 3.6 2.4 1.7 0 3-1 3.6-2.4h4v1.2a6 6 0 002.1 4.5 11 11 0 00-7.1 10.2v2.5c0 .7.5 1.2 1.2 1.2h20.4c.7 0 1.3-.5 1.3-1.2v-2.5c0-4.6-3-8.6-7.2-10.2zM23 76.3v1.2h-2.6v-2.4h-2.5v2.4H10v-2.4H7.6v2.4H5v-1.2c0-4.7 4-8.6 9-8.6 4.9 0 8.9 3.9 8.9 8.6zM10 61.6v-2.4c0-2 1.8-3.7 3.9-3.7 2 0 3.8 1.6 3.8 3.7v2.4c0 2-1.7 3.7-3.8 3.7a3.8 3.8 0 01-3.9-3.7zM28 60.4c-.7 0-1.3-.6-1.3-1.2 0-.7.6-1.3 1.3-1.3.7 0 1.3.6 1.3 1.3 0 .6-.6 1.2-1.3 1.2zM32.8 30A13.2 13.2 0 0128 19.7c.1-7 6.1-13 13.4-13.2 4-.2 7.5 1.1 10.3 3.7a13.1 13.1 0 01-.5 20c-2.6 2-4.1 5-4.1 8.1H36.9c0-3-1.6-6-4.1-8.2zM47 40.8v2.4H36.9v-2.4h10.2zm-7.6 4.9h5c0 1.3-1.1 2.4-2.5 2.4a2.5 2.5 0 01-2.5-2.4zm11.4 30.6v1.2h-2.5v-2.4h-2.6v2.4h-7.6v-2.4h-2.6v2.4h-2.5v-1.2c0-4.7 4-8.6 8.9-8.6 5 0 9 3.9 9 8.6zM38.2 61.6v-2.4c0-2 1.7-3.7 3.8-3.7 2.1 0 3.8 1.6 3.8 3.7v2.4c0 2-1.7 3.7-3.8 3.7a3.8 3.8 0 01-3.8-3.7zM56 60.4c-.7 0-1.3-.6-1.3-1.2 0-.7.6-1.3 1.3-1.3.7 0 1.3.6 1.3 1.3 0 .6-.6 1.2-1.3 1.2zm10.2 1.2v-2.4c0-2 1.7-3.7 3.8-3.7 2.1 0 3.9 1.6 3.9 3.7v2.4c0 2-1.8 3.7-3.9 3.7a3.8 3.8 0 01-3.8-3.7zm12.8 16h-2.6V75h-2.5v2.4h-7.7v-2.4h-2.5v2.4H61v-1.2c0-4.7 4-8.6 9-8.6 4.8 0 8.9 3.9 8.9 8.6v1.2z"/>
  <path fill="url(#paint1_linear)" d="M39.5 33.4h5V36h-5v-2.5z"/>
  <defs>
    <linearGradient id="paint0_linear" x1="65.4" x2="14.1" y1="31.8" y2="31.8" gradientUnits="userSpaceOnUse">
      <stop stop-color="#0DA6F2"/>
      <stop offset="1" stop-color="#F2390B"/>
    </linearGradient>
    <linearGradient id="paint1_linear" x1="65.4" x2="14.1" y1="31.8" y2="31.8" gradientUnits="userSpaceOnUse">
      <stop stop-color="#0DA6F2"/>
      <stop offset="1" stop-color="#F2390B"/>
    </linearGradient>
  </defs>
</svg>
